!!!COM: Barengayabo, Marc
!!!CDT: b. 1934
!!!OTL: National Anthem, Burundi
!!!ENC: Davis, Matthew J.
!!Vocal Line Only
**kern
*clefG2
*k[b-e-a-d-]
*X:
*M4/4
=1-
8ee-
=2
4ee-
4cc
8cc
8a-
8b-
8b-
=3
4cc
8b-
8b-
4g
4e-
=4
8.cc
16cc
8cc
8a-
8a-
8a-
8.a-
16a
=5
8a-
8a-
8.a-
16f
8a-
8e-
8e-
8e-
=6
8e-
8e-
4e-
2e-
=7
8a-
8a-
8f
8f
8a-
8g
16g
16e-
8e-
=8
8a-
8a-
8f
8f
8f
8f
8g
8e-
=9
16e-
16e-
8e-
2e-
8.r
16a-
=10
8a-
16a-
16a-
8a-
8a-
8b-
16b-
16b-
8b-
16b-
16b-
=11
8cc
16cc
16cc
8cc
16cc
16cc
8cc
8cc
8ff
8ee-
=12
8.ee-
16ee-
2ee-
4r
=13
16b-
16b-
8b-
8cc
8b-
8cc
8a-
8.a
16a
=14
8.b-
16b-
8.b-
16a-
8b-
8a-
16b-
16a-
8f
=15
8.a
16a
16f
16f
16f
16f
16f
8.f
16f
8.a-
16a-
=16
16e-
16e-
16e-
16e-
4e-
4.e-
8ee-
=17
4ee-
4cc
8cc
8a-
4b-
=18
8cc
8b-
8cc
8b-
8cc
8b-
8b-
8a-
=19
16b-
16b-
8b-
8.b-
16a-
8b-
8a-
8a-
8f
=20
8f
8f
8f
8f
8f
8f
8g
8e-
=21
8e-
8e-
4r
8b-
8b-
8.b-
16a-
=22
8.b-
16a-
8.a-
16f
8a-
8a-
8.f
16f
=23
8a-
8a-
4e-
4e-
8r
8ee-
=24
4ee-
4cc
8cc
8a-
4b-
=25
8cc
8b-
8cc
8cc
4a-
8cc
8cc
=26
4a-
4f
8b-
8b-
8.b-
16b-
=27
8cc
8cc
4a-
8cc
8cc
8cc
8a-
=28
8a-
8f
8f
8f
8r
8f
8g
8e-
=29
4f
8f
16g
16e-
8f
8f
8f
8g
=30
8.e-
16e-
4e-
2r
=31
16a-
16a-
8a-
8.a-
16e-
8b-
8a-
8a-
8a-
=32
4b-
4a-
4f
4e-
=33
4b-
8b-
8b-
4g
4e-
=34
8.b-
16b-
8cc
8b-
8g
8e-
4f
=35
[2e-
2e-]
==|!
*-
